lib/functional/maps&travel/car.svg

<svg xmlns="http://www.w3.org/2000/svg" fill="none" stroke="currentColor" aria-hidden="true" viewBox="0 0 32 32"><g id="Icon-Car"><g clip-path="url(#clip0_10_1988)"><g id="size=md (32px)"><g id="Car"><path id="Vector" stroke-linecap="round" stroke-linejoin="round" stroke-width="2" d="M2 15H30"/><path id="Vector_2" stroke-linecap="round" stroke-linejoin="round" stroke-width="2" d="M28 23V26C28 26.2652 27.8946 26.5196 27.7071 26.7071C27.5196 26.8946 27.2652 27 27 27H24C23.7348 27 23.4804 26.8946 23.2929 26.7071C23.1054 26.5196 23 26.2652 23 26V23"/><path id="Vector_3" stroke-linecap="round" stroke-linejoin="round" stroke-width="2" d="M9 23V26C9 26.2652 8.89464 26.5196 8.70711 26.7071C8.51957 26.8946 8.26522 27 8 27H5C4.73478 27 4.48043 26.8946 4.29289 26.7071C4.10536 26.5196 4 26.2652 4 26V23"/><path id="Vector_4" stroke-linecap="round" stroke-linejoin="round" stroke-width="2" d="M8 19H10"/><path id="Vector_5" stroke-linecap="round" stroke-linejoin="round" stroke-width="2" d="M22 19H24"/><path id="Vector_6" stroke-linecap="round" stroke-linejoin="round" stroke-width="2" d="M28 15L24.2625 6.6C24.1849 6.42229 24.0574 6.27096 23.8954 6.16444C23.7334 6.05791 23.5439 6.00078 23.35 6H8.65C8.45611 6.00078 8.26662 6.05791 8.10461 6.16444C7.9426 6.27096 7.81506 6.42229 7.7375 6.6L4 15V23H28V15Z"/></g></g></g></g><defs><clipPath id="clip0_10_1988"><rect width="32" height="32" fill="white" rx="5"/></clipPath></defs></svg>

<svg xmlns="http://www.w3.org/2000/svg" fill="none" stroke="currentColor" aria-hidden="true" viewBox="0 0 32 32"><path stroke-linecap="round" stroke-linejoin="round" stroke-width="2" d="M2 15h28m-2 8v3a1 1 0 0 1-1 1h-3a1 1 0 0 1-1-1v-3M9 23v3a1 1 0 0 1-1 1H5a1 1 0 0 1-1-1v-3m4-4h2m12 0h2"/><path stroke-linecap="round" stroke-linejoin="round" stroke-width="2" d="m28 15-3.738-8.4a1 1 0 0 0-.912-.6H8.65a1 1 0 0 0-.913.6L4 15v8h24v-8Z"/></svg>
